!!!!SEGMENT: pl-wtm--r-1762--003_stefani-jozef--hans-jurga-allegro.krn
!!!cenid: 18xx:1914
!!!COM: Stefani, Józef
!!!COM-rismid: pe30024097
!!!CDT: 1800/04/16-1876/03/19
!!!CNT: Polish
!!!OPR: Hans Jurga
!!!OTL: Allegro
!!!OMV: 003
!!!PDT:
!!!AGN: Secular
!!!SMS-siglum: PL-Wtm
!!!SMS-shelfmark: R 1762
!!!SMS-shelfwork: 001-003 M
!!!SMS-variant:
!!!SMS-altvar:
!!!NIFC-rismid: 1001131405
!!!URL-scan: http://repozytorium.nifc.pl/skany/pl-wtm-nut--r1762
!!!ONB-nifc: UWAGA: No. 4., skany 0016-0017
!!!AIN: 1 clars 1 cor 3 empty 1 fagot 1 flt
!!!key:
**kern	**dynam	**kern	**text	**kern	**kern	**kern	**kern	**kern	**dynam
*	*	*	*	*group1	*group1	*	*	*	*
*	*	*	*	*I""Tenori	*I""Tenori	*	*	*	*
*	*	*	*	*I''T	*I''T	*	*	*	*
*part7	*part7	*part6	*part6	*part5	*part4	*part3	*part2	*part1	*part1
*staff7	*	*staff6	*staff6	*staff5	*staff4	*staff3	*staff2	*staff1	*
*Ifagot	*	*Iempty	*	*Iempty	*Iempty	*Icor	*Iclars	*Iflt	*
*I"Fagot	*	*I"Baſso	*	*	*	*I"in B. Corni	*I"in B. Clarinetti	*I"Flauto	*
*I'Fagot	*	*I'Baſso	*	*	*	*I'cor in B	*I'cl in B	*I'fl	*
*clefF4	*	*clefF4	*	*clefC4	*clefC4	*clefG2	*clefG2	*clefG2	*
*	*	*	*	*	*	*ITrd1c2	*ITrd1c2	*	*
*k[b-e-]	*	*k[b-e-]	*	*k[b-e-]	*k[b-e-]	*k[b-e-]	*k[b-e-]	*k[b-e-]	*
*b-:	*	*b-:	*	*b-:	*b-:	*b-:	*b-:	*b-:	*
*M2/4	*	*M2/4	*	*M2/4	*M2/4	*M2/4	*M2/4	*M2/4	*
*all\right	*	*all\right	*	*all\right	*all\right	*all\right	*all\right	*all\right	*
!	!	!	!	!	!	!	!	!LO:TX:a:t=B. (&colon;Co Karolowi dołba strzeliło&colon;)	!
!	!	!	!	!	!	!	!	!LO:TX:a:t=M. [[Sliczne widoki na przyszłość]]	!
!	!	!	!	!	!	!	!	!LO:TX:a:t=/&colon;na słowa&colon;/ [[A. On miewa takie napady.]]	!
!	!	!	!	!	!	!	!	!LO:TX:a:t=/&colon;[[Marsz]] Chór za sceną&colon;/	!
!LO:TX:a:t=P:problem=nad partią fagotu dodatkowa pusta pięciolinia, na początku napis "Fagot"	!	!	!	!	!	!	!	!LO:TX:a:t=N=o 4. Allegro	!
4r	.	4r	.	4r	4r	8.fL 8.F/	4r	4r	.
.	.	.	.	.	.	16fJk 16F/	.	.	.
=1	=1	=1	=1	=1	=1	=1	=1	=1	=1
2r	.	2r	.	2r	2r	4f 4F/	2r	2r	.
.	.	.	.	.	.	8.fL 8.F/	.	.	.
.	.	.	.	.	.	16fJk 16F/	.	.	.
=2	=2	=2	=2	=2	=2	=2	=2	=2	=2
4r	.	4r	.	4r	4r	4f 4F/	2r	2r	.
8.F\L	.	8.F\	Na-	8.F/	8.F/	8.f/L	.	.	.
16F\Jk	.	16F\	-przód	16F/	16F/	16f/Jk	.	.	.
=3	=3	=3	=3	=3	=3	=3	=3	=3	=3
*	*	*	*	*	*	*^	*	*	*
8BB-/L	.	8BB-/	na-	8B-\	8d\	8dd/	8b-\	2r	2r	.
8D/J	.	8D/	-przód	8F/	8B-\	8b- 8f/	8ryy	.	.	.
8.F\L	.	8.F\	bra-	8.F/	8.F/	8.f/L	4ryy	.	.	.
16F\Jk	.	16F\	-cia	16F/	16F/	16f/Jk	.	.	.	.
*	*	*	*	*	*	*v	*v	*	*	*
=4	=4	=4	=4	=4	=4	=4	=4	=4	=4
4BB-/	.	4BB-/	wraz	4F/	4d\	4dd 4f/	2ryy	2ryy	.
*	*	*	*	*	*	*^	*	*	*
8.BB-/L	.	8.BB-/	zbli-	8.B-\	8.d\	8.dd/L	8.b-\L	.	.	.
16D/Jk	.	16D/	-ża	16B-\	16f\	16ff/Jk	16b-\Jk	.	.	.
!!LO:LB:g=original
=5	=5	=5	=5	=5	=5	=5	=5	=5	=5	=5
8F\L	.	8F\	się	8A\	8c\	8cc/L	8a\L	2r	2r	.
8F\J	.	8F\	roz-	8A\	8c\	8cc/J	8a\J	.	.	.
8.G\L	.	8.G\	-sta-	8.G\	8.B-\	8.b-/	8.g\	.	.	.
16F\Jk	.	16F\	-nia	16A\	16c\	16cc/	16a\	.	.	.
=6	=6	=6	=6	=6	=6	=6	=6	=6	=6	=6
*	*	*	*	*	*	*	*	*^	*	*
4BB-/	.	4BB-/	czas	4B-\	4d\	4dd/	4b-\	4ryy	4ryy	4ryy	.
8.B-\L	.	4r	.	4r	4r	4r	4ryy	8.dd/L	8.b-\L	8.ddd\L	.
16d\Jk	.	.	.	.	.	.	.	16ff/Jk	16b-\Jk	16fff\Jk	.
*	*	*	*	*	*	*v	*v	*	*	*	*
=7	=7	=7	=7	=7	=7	=7	=7	=7	=7	=7
8f\L	.	2r	.	2r	2r	2r	8cc/L	8a\L	8ccc\L	.
8f\J	.	.	.	.	.	.	8cc/J	8a\J	8cccT\J	.
8.g\L	.	.	.	.	.	.	8.b-/L	8.g\L	8.bb-\L	.
16f\Jk	.	.	.	.	.	.	16cc/Jk	16a\Jk	16ccc\Jk	.
=8	=8	=8	=8	=8	=8	=8	=8	=8	=8	=8
4B-\	.	4r	.	4r	4r	4r	4dd/	4b-\	4ddd\	.
!	!	!	!	!	!	!	!	!	!LO:TX:a:t=P:problem=wykreślone takty	!
4r	.	8.B-\	Cią-	8.B-\	8.B-\	4r	4r	4r	4r	.
.	.	16B-\	-ży	16B-\	16B-\	.	.	.	.	.
*	*	*	*	*	*	*	*v	*v	*	*
!!LO:PB:g=original
=9	=9	=9	=9	=9	=9	=9	=9	=9	=9
*	*	*	*	*	*	*^	*	*	*
8E-\L	.	8E-\	nam	8B-\	8g\	8b-/L	8b-\L	8gg^L 8b-\	8ggg\L	.
8G\J	.	8G\	na	8B-\	8e-\	8b-/J	8b-\J	8ee-J^ 8b-\	8eee-\J	.
4r	.	8.B-\	ser-	8.B-\	8.B-\	4r	4ryy	4r	4r	.
.	.	16B-\	-cu	16B-\	16B-\	.	.	.	.	.
=10	=10	=10	=10	=10	=10	=10	=10	=10	=10	=10
*	*	*	*	*	*	*	*	*^	*	*
4BB-/	.	4BB-/	on,	4d\	4f\	4dd/	4b-\	4ff^/	4dd\	4fff\	.
!	!LO:DY:rj	!	!	!	!	!	!	!	!	!	!LO:DY:rj
8.E-/L	p	8.E-\	Lecz	8.G/	8.c\	4r	4ryy	8.cc/L	8.g\L	8.ccc\L	p
16C/Jk	.	16C/	za	16G/	16e-\	.	.	16ee-/Jk	16g\Jk	16eee-\Jk	.
*	*	*	*	*	*	*v	*v	*	*	*	*
=11	=11	=11	=11	=11	=11	=11	=11	=11	=11	=11
8F\L	.	8F\	mo-	8B-\	8d\	2r	8dd/L	8b-\L	8ddd\L	.
8D\J	.	8D\	-rzem	8F/	8B-\	.	8b-/J	8f\J	8bb-\J	.
8.E-/L	.	8.E-\	cze-	8.G/	8.G/	.	8.g/L	8.g\L	8.gg\L	.
16C/Jk	.	16C/	-ka	16E-/	16A/	.	16a/Jk	16e-\Jk	16aa\Jk	.
*	*	*	*	*	*	*	*v	*v	*	*
=12	=12	=12	=12	=12	=12	=12	=12	=12	=12
4BB-/	.	4BB-/	plon	4D/	4B-\	4r	4b- 4d/	4bb-\	.
!	!LO:DY:rj	!	!	!	!	!	!	!	!LO:DY:rj
8.D/L	f	8.D/	J	8.d\	8.d\	8.dd\L	8.dd\L	8.ddd\L	f
16BB-/Jk	.	16BB-/	go-	16B-\	16B-\	16b-\Jk	16b-\Jk	16bb-\Jk	.
=13	=13	=13	=13	=13	=13	=13	=13	=13	=13
8.F\L	.	8.F\	-rą-	8.f\	8.f\	8.ff\L	8.ff\L	8.fff\L	.
16F\Jk	.	16F\	-co	16f\	16f\	16ff\Jk	16ff\Jk	16fff\Jk	.
8F\L	.	8F\	cze-	8f\	8f\	8ff\L	8ff\L	8fff\L	.
8F\J	.	8F\	-ka	8f\	8f\	8ff\J	8ff\J	8fff\J	.
!!LO:LB:g=original
=14	=14	=14	=14	=14	=14	=14	=14	=14	=14
4D\	.	4D/	nas	4d\	4d\	4dd\	4dd\	4ddd\	.
8.D/L	.	8.D/	J	8.d\	8.d\	8.dd\L	8.dd\L	8.ddd\L	.
16BB-/Jk	.	16BB-/	go-	16B-\	16B-\	16b-\Jk	16b-\Jk	16bb-\Jk	.
=15	=15	=15	=15	=15	=15	=15	=15	=15	=15
8.F\L	.	8.F\	-rą-	8.f\	8.f\	8.ff\L	8.ff\L	8.fff\L	.
16F\Jk	.	16F\	-co	16f\	16f\	16ff\Jk	16ff\Jk	16fff\Jk	.
!	!	!	!	!	!	!LO:TX:t=P:mixedbeam:problem	!LO:TX:t=P:problem=mixedbeam	!	!
8F\L	.	8F\	cze-	8f\	8f\	8ff\L	8ff\L	8fff\L	.
8F\J	.	8F\	-ka	8F/	8F/	8f/J	8f/J	8ff\J	.
=16	=16	=16	=16	=16	=16	=16	=16	=16	=16
4BB-/	.	4BB-/	nas.	4B-\	4B-\	4b-\	4b-\	4bb-\	.
!LO:TX:b:t=zaraz Marsz \nSierżant w czasie \nmarsza wprowadza \nrekrutów	!	!	!	!	!	!	!	!	!
4r	.	4r	.	4r	4r	4r	4r	4r	.
==	==	==	==	==	==	==	==	==	==
*-	*-	*-	*-	*-	*-	*-	*-	*-	*-
!!!system-decoration: [(s1,s2,s3,g1,s6,s7)]
!!!RDF**kern: < = below
!!!ENC: Marta Lawrence
!!!END: 2021-05-17
!!!ENC: Anastazja Marusiak
!!!END: 2021-04-22
